X: 40372
T: Tom Fitzmorris'
R: reel
M: 4/4
K: Amajor
AE|:F2AF E2AB|ceAc BFAF|EFAB cefc|ecBd cBAE|
F2AF E2AB|ceAc BFAF|EFAB c2fc|ecBc A2:|
AB|:c2ec d2fd|c2ec BAFA|c2ec d2fd|ecBA FAAB|
cdec defd|cdec BAFB|ABce a2fa|ec (3BcB A2:|

